drawable_resources/logo_dev.svg

<?xml version="1.0" encoding="UTF-8" standalone="no"?>
<svg
   xmlns:dc="http://purl.org/dc/elements/1.1/"
   xmlns:cc="http://creativecommons.org/ns#"
   xmlns:rdf="http://www.w3.org/1999/02/22-rdf-syntax-ns#"
   xmlns:svg="http://www.w3.org/2000/svg"
   xmlns="http://www.w3.org/2000/svg"
   xmlns:sodipodi="http://sodipodi.sourceforge.net/DTD/sodipodi-0.dtd"
   xmlns:inkscape="http://www.inkscape.org/namespaces/inkscape"
   width="100%"
   height="100%"
   viewBox="0 0 1064 1064"
   version="1.1"
   xml:space="preserve"
   style="fill-rule:evenodd;clip-rule:evenodd;stroke-linejoin:round;stroke-miterlimit:1.41421;"
   id="svg15"
   sodipodi:docname="logo_dev.svg"
   inkscape:version="0.92.1 r15371"><metadata
     id="metadata21"><rdf:RDF><cc:Work
         rdf:about=""><dc:format>image/svg+xml</dc:format><dc:type
           rdf:resource="http://purl.org/dc/dcmitype/StillImage" /></cc:Work></rdf:RDF></metadata><defs
     id="defs19" /><sodipodi:namedview
     pagecolor="#ffffff"
     bordercolor="#666666"
     borderopacity="1"
     objecttolerance="10"
     gridtolerance="10"
     guidetolerance="10"
     inkscape:pageopacity="0"
     inkscape:pageshadow="2"
     inkscape:window-width="1920"
     inkscape:window-height="1005"
     id="namedview17"
     showgrid="false"
     inkscape:zoom="0.22180451"
     inkscape:cx="532"
     inkscape:cy="532"
     inkscape:window-x="-9"
     inkscape:window-y="-9"
     inkscape:window-maximized="1"
     inkscape:current-layer="svg15" /><g
     id="text4136"
     transform="translate(0,-8)"><g
       id="path4491"
       transform="translate(4,-14)"><path
         d="m 478.87,880.641 c 0,21.211 -5.889,37.441 -17.666,48.691 -11.777,11.191 -28.74,16.787 -50.889,16.787 H 374.368 V 817.623 h 39.727 c 20.449,0 36.357,5.508 47.724,16.523 11.368,11.016 17.051,26.514 17.051,46.495 z m -22.148,0.703 c 0,-30.762 -14.385,-46.143 -43.155,-46.143 h -18.193 v 93.252 h 14.941 c 30.938,0 46.407,-15.703 46.407,-47.109 z"
         style="fill:#ffffff;fill-rule:nonzero"
         id="path2"
         inkscape:connector-curvature="0" /></g><g
       id="path4493"
       transform="translate(4,-14)"><path
         d="m 546.81,947.877 c -15.118,0 -26.954,-4.395 -35.508,-13.184 -8.496,-8.847 -12.744,-21.006 -12.744,-36.474 0,-15.879 3.955,-28.36 11.865,-37.442 7.91,-9.082 18.779,-13.623 32.607,-13.623 12.832,0 22.969,3.897 30.41,11.69 7.442,7.793 11.163,18.515 11.163,32.168 v 11.162 h -64.776 c 0.293,9.433 2.842,16.699 7.647,21.797 4.804,5.039 11.572,7.558 20.302,7.558 5.743,0 11.075,-0.527 15.996,-1.582 4.981,-1.113 10.313,-2.929 15.997,-5.449 v 16.787 c -5.04,2.402 -10.137,4.102 -15.293,5.098 -5.157,0.996 -11.045,1.494 -17.666,1.494 z m -3.78,-85.078 c -6.562,0 -11.836,2.08 -15.82,6.24 -3.926,4.16 -6.27,10.225 -7.031,18.193 H 564.3 c -0.117,-8.027 -2.051,-14.091 -5.801,-18.193 -3.75,-4.16 -8.906,-6.24 -15.469,-6.24 z"
         style="fill:#ffffff;fill-rule:nonzero"
         id="path5"
         inkscape:connector-curvature="0" /></g><g
       id="path4495"
       transform="translate(4,-14)"><path
         d="m 630.218,946.119 -36.914,-97.207 h 21.797 l 19.775,56.514 c 3.398,9.492 5.449,17.168 6.152,23.027 h 0.703 c 0.528,-4.219 2.579,-11.894 6.153,-23.027 l 19.775,-56.514 h 21.973 l -37.09,97.207 z"
         style="fill:#ffffff;fill-rule:nonzero"
         id="path8"
         inkscape:connector-curvature="0" /></g></g><g
     id="path6"
     transform="translate(-140,-136.064)"><path
       d="M 672.681,456.07 C 579.33,456.08 500.945,519.999 476.995,605.988 456.091,559.995 410.078,527.4 356.617,527.394 283.844,527.404 224.009,587.243 224,660.022 c -0.014,72.793 59.829,132.645 132.617,132.654 53.467,-0.01 99.45,-32.621 120.351,-78.621 23.941,86.004 102.353,149.936 195.716,149.945 92.84,0.01 170.84,-63.23 195.277,-148.499 21.243,45.148 66.549,77.166 119.395,77.172 72.804,0.013 132.654,-59.846 132.644,-132.654 -0.01,-72.794 -59.86,-132.64 -132.644,-132.628 -52.849,0.01 -98.18,32.018 -119.422,77.172 -24.437,-85.266 -102.41,-148.505 -195.25,-148.499 z m 0,77.856 c 70.106,0 126.109,55.987 126.115,126.099 0,70.12 -56,126.131 -126.115,126.125 -70.106,-0.01 -126.094,-56.014 -126.088,-126.125 0.01,-70.103 55.991,-126.09 126.088,-126.099 z M 356.602,605.25 c 30.712,0 54.764,24.059 54.767,54.772 0,30.719 -24.05,54.795 -54.767,54.798 -30.718,0 -54.772,-24.079 -54.766,-54.798 0,-30.713 24.056,-54.769 54.766,-54.772 z m 630.754,0 c 30.714,-0.01 54.794,24.052 54.794,54.772 0.01,30.728 -24.07,54.804 -54.794,54.798 -30.718,0 -54.772,-24.079 -54.769,-54.798 0,-30.713 24.057,-54.769 54.769,-54.772 z"
       style="fill:#ffffff;fill-rule:nonzero"
       id="path12"
       inkscape:connector-curvature="0" /></g></svg>

<?xml version="1.0" encoding="UTF-8" standalone="no"?>
<!DOCTYPE svg PUBLIC "-//W3C//DTD SVG 1.1//EN" "http://www.w3.org/Graphics/SVG/1.1/DTD/svg11.dtd">
<svg width="100%" height="100%" viewBox="0 0 1064 1064" version="1.1" xmlns="http://www.w3.org/2000/svg" xmlns:xlink="http://www.w3.org/1999/xlink" xml:space="preserve" xmlns:serif="http://www.serif.com/" style="fill-rule:evenodd;clip-rule:evenodd;stroke-linejoin:round;stroke-miterlimit:1.41421;">
    <g id="text4136">
        <g id="path4491" transform="matrix(1,0,0,1,4,-14)">
            <path d="M478.87,880.641C478.87,901.852 472.981,918.082 461.204,929.332C449.427,940.523 432.464,946.119 410.315,946.119L374.368,946.119L374.368,817.623L414.095,817.623C434.544,817.623 450.452,823.131 461.819,834.146C473.187,845.162 478.87,860.66 478.87,880.641ZM456.722,881.344C456.722,850.582 442.337,835.201 413.567,835.201L395.374,835.201L395.374,928.453L410.315,928.453C441.253,928.453 456.722,912.75 456.722,881.344Z" style="fill:white;fill-rule:nonzero;"/>
        </g>
        <g id="path4493" transform="matrix(1,0,0,1,4,-14)">
            <path d="M546.81,947.877C531.692,947.877 519.856,943.482 511.302,934.693C502.806,925.846 498.558,913.687 498.558,898.219C498.558,882.34 502.513,869.859 510.423,860.777C518.333,851.695 529.202,847.154 543.03,847.154C555.862,847.154 565.999,851.051 573.44,858.844C580.882,866.637 584.603,877.359 584.603,891.012L584.603,902.174L519.827,902.174C520.12,911.607 522.669,918.873 527.474,923.971C532.278,929.01 539.046,931.529 547.776,931.529C553.519,931.529 558.851,931.002 563.772,929.947C568.753,928.834 574.085,927.018 579.769,924.498L579.769,941.285C574.729,943.687 569.632,945.387 564.476,946.383C559.319,947.379 553.431,947.877 546.81,947.877ZM543.03,862.799C536.468,862.799 531.194,864.879 527.21,869.039C523.284,873.199 520.94,879.264 520.179,887.232L564.3,887.232C564.183,879.205 562.249,873.141 558.499,869.039C554.749,864.879 549.593,862.799 543.03,862.799Z" style="fill:white;fill-rule:nonzero;"/>
        </g>
        <g id="path4495" transform="matrix(1,0,0,1,4,-14)">
            <path d="M630.218,946.119L593.304,848.912L615.101,848.912L634.876,905.426C638.274,914.918 640.325,922.594 641.028,928.453L641.731,928.453C642.259,924.234 644.31,916.559 647.884,905.426L667.659,848.912L689.632,848.912L652.542,946.119L630.218,946.119Z" style="fill:white;fill-rule:nonzero;"/>
        </g>
    </g>
    <g id="path6" transform="matrix(1,0,0,1,-140,-128.064)">
        <path d="M672.681,456.07C579.33,456.08 500.945,519.999 476.995,605.988C456.091,559.995 410.078,527.4 356.617,527.394C283.844,527.404 224.009,587.243 224,660.022C223.986,732.815 283.829,792.667 356.617,792.676C410.084,792.666 456.067,760.055 476.968,714.055C500.909,800.059 579.321,863.991 672.684,864C765.524,864.01 843.524,800.77 867.961,715.501C889.204,760.649 934.51,792.667 987.356,792.673C1060.16,792.686 1120.01,732.827 1120,660.019C1119.99,587.225 1060.14,527.379 987.356,527.391C934.507,527.401 889.176,559.409 867.934,604.563C843.497,519.297 765.524,456.058 672.684,456.064L672.681,456.07ZM672.681,533.926C742.787,533.926 798.79,589.913 798.796,660.025C798.796,730.145 742.796,786.156 672.681,786.15C602.575,786.14 546.587,730.136 546.593,660.025C546.603,589.922 602.584,533.935 672.681,533.926ZM356.602,605.25C387.314,605.25 411.366,629.309 411.369,660.022C411.369,690.741 387.319,714.817 356.602,714.82C325.884,714.82 301.83,690.741 301.836,660.022C301.836,629.309 325.892,605.253 356.602,605.25ZM987.356,605.25C1018.07,605.24 1042.15,629.302 1042.15,660.022C1042.16,690.75 1018.08,714.826 987.356,714.82C956.638,714.82 932.584,690.741 932.587,660.022C932.587,629.309 956.644,605.253 987.356,605.25Z" style="fill:white;fill-rule:nonzero;"/>
    </g>
</svg>
